packages/ui-solid/icons/star_fill_40.svg

<svg width="40" height="40" viewBox="0 0 40 40" fill="none" xmlns="http://www.w3.org/2000/svg">
<path d="M16.2281 9.99274C17.3943 6.82867 17.9774 5.24663 18.8257 4.79406C19.5605 4.40198 20.4395 4.40198 21.1743 4.79406C22.0226 5.24663 22.6057 6.82867 23.7719 9.99274L24.334 11.5177C24.6711 12.4323 24.8396 12.8896 25.1302 13.2326C25.387 13.5357 25.7108 13.7735 26.0754 13.9267C26.4879 14.1001 26.9702 14.1208 27.9349 14.1623L29.5434 14.2314C32.8807 14.3748 34.5494 14.4465 35.2373 15.1221C35.8333 15.7074 36.1049 16.5524 35.9631 17.38C35.7994 18.3354 34.4911 19.3848 31.8745 21.4837L30.6135 22.4953C29.8571 23.102 29.479 23.4054 29.246 23.7907C29.0402 24.1313 28.9165 24.516 28.885 24.9139C28.8494 25.364 28.9789 25.8341 29.238 26.7743L29.67 28.342C30.5664 31.5947 31.0146 33.2211 30.5915 34.0912C30.225 34.845 29.5139 35.3672 28.6914 35.4867C27.742 35.6245 26.3503 34.6911 23.567 32.8242L22.2255 31.9245C21.421 31.3848 21.0187 31.115 20.5841 31.0102C20.2001 30.9175 19.7999 30.9175 19.4159 31.0102C18.9813 31.115 18.579 31.3848 17.7745 31.9245L16.433 32.8242C13.6497 34.6911 12.258 35.6245 11.3086 35.4867C10.4861 35.3672 9.77503 34.845 9.40851 34.0912C8.98544 33.2211 9.43362 31.5947 10.33 28.342L10.762 26.7744C11.0211 25.8341 11.1506 25.364 11.115 24.9139C11.0835 24.516 10.9598 24.1313 10.754 23.7907C10.5211 23.4054 10.1429 23.102 9.38655 22.4953L8.12548 21.4837C5.50892 19.3848 4.20063 18.3354 4.03694 17.38C3.89514 16.5524 4.16675 15.7074 4.76272 15.1221C5.45065 14.4465 7.11931 14.3748 10.4566 14.2314L12.0651 14.1623C13.0298 14.1208 13.5121 14.1001 13.9246 13.9267C14.2892 13.7735 14.613 13.5357 14.8698 13.2326C15.1604 12.8896 15.3289 12.4323 15.666 11.5177L16.2281 9.99274Z" fill="#007AFF"/>
</svg>

<svg xmlns="http://www.w3.org/2000/svg" width="40" height="40" fill="none"><path fill="currentColor" d="M16.228 9.993c1.166-3.164 1.75-4.746 2.598-5.199a2.49 2.49 0 0 1 2.348 0c.849.453 1.432 2.035 2.598 5.199l.562 1.525c.337.914.506 1.372.796 1.715.257.303.58.54.945.694.413.173.895.194 1.86.235l1.608.07c3.338.143 5.006.215 5.694.89a2.56 2.56 0 0 1 .726 2.258c-.164.955-1.472 2.005-4.088 4.104l-1.262 1.011c-.756.607-1.134.91-1.367 1.296a2.55 2.55 0 0 0-.361 1.123c-.036.45.094.92.353 1.86l.432 1.568c.896 3.253 1.345 4.88.921 5.75a2.52 2.52 0 0 1-1.9 1.395c-.949.137-2.34-.796-5.124-2.663l-1.341-.9c-.805-.54-1.207-.809-1.642-.914a2.5 2.5 0 0 0-1.168 0c-.435.105-.837.375-1.642.914l-1.341.9c-2.783 1.867-4.175 2.8-5.124 2.663a2.52 2.52 0 0 1-1.9-1.396c-.424-.87.025-2.496.921-5.749l.432-1.568c.26-.94.389-1.41.353-1.86a2.56 2.56 0 0 0-.361-1.123c-.233-.386-.611-.689-1.367-1.296l-1.262-1.011c-2.616-2.1-3.924-3.149-4.088-4.104a2.56 2.56 0 0 1 .726-2.258c.688-.675 2.356-.747 5.694-.89l1.608-.07c.965-.041 1.447-.062 1.86-.235.364-.153.688-.391.945-.694.29-.343.459-.8.796-1.715z"/></svg>
